X:1
T:The Dying Soldier
M:6/8
L:1/8
K:G
 G2-A/2-G/2 E| D2 C B,2 C| D2 G G2 G| D2 G A2 F|
M:9/8
 G3 z2 z B2 c| d2 d d2 c
M:9/8
| B2 B B3- B2 =A|
M:6/8
 A2 G F2 G|
M:9/8
 A3 z2 z B2 c| d2 d d2 B
M:7/8
| cA z2 A2 B|
M:9/8
 c E2- E2- GG E/2- D3/2| /2- D2 z G3-| G2- E D3/2 C3/2 B,2 C|
M:7/8
 D2 G G2 z G|
M:6/8
 F/2 G3/2- G A2 F| G3- G2 z| z2 z||
